X: 6598
T: Caucus, The
R: reel
M: 4/4
K: Gmajor
B|:dGBd ~g3d|egdB AGAB|dGBd gabg|1 abge g3e:|2 abge g3a||
|:b~g3 agef|g~e3 dega|b~g3 agbg|abge ~g3a|
b~g3 agef|gage dBGA|ABBA AGEG|GEDE G2Bd||
|:edgd ed (3Bcd|egdB A2Bd|edgd ed(3Bcd|gabg abgf|
edgd ed (3Bcd|egdB A2GA|ABBA AGEG|1 GEDE G4||

